icon-svg/side-glassdoor-close.svg

<svg xmlns="http://www.w3.org/2000/svg" fill="#44739e" viewBox="0 0 24 24"><path d="M21.4 22.2h-1.1V2.9h1.1zm-1.3 0h-.3V2.9h.3zm-.5 0h-6.1v-1.7h6.1zm-6.4 0h-1.1V2.9h1.2zm6.4-2h-2.1v-3.8h2.1zm-2.4 0h-3.7v-3.8h3.7zm2.4-4.1h-2.1v-3.8h2.1zm-2.4 0h-3.7v-3.8h3.7zm2.4-4.2h-2.1V8.2h2.1zm-2.4 0h-3.7V8.2h3.7zm2.4-4.1h-2.1V4h2.1zm-2.4 0h-3.7V4h3.7zm2.3-4h-6.1v-.9h6.1zm-1.9.4v3.5h1.7V4.2zm0 4.1v3.5h1.7V8.3zm0 4.2V16h1.7v-3.5zm0 4.1v3.5h1.7v-3.5zm2.7 5.6h1.1V2.9H12v19.3zm2.4.7H1.3v-.8h9.4v-20h12z"/></svg>

<?xml version="1.0" encoding="UTF-8"?>
<svg width="24px" height="24px" viewBox="0 0 24 24" version="1.1" fill="#44739e" xmlns="http://www.w3.org/2000/svg" xmlns:xlink="http://www.w3.org/1999/xlink">
            <path d="M21.4,22.2l-1.1,0l0-19.3h1.1V22.2 M20.1,22.2h-0.3l0-19.3h0.3V22.2 M19.6,22.2l-6.1,0l0-1.7h6.1L19.6,22.2
			M13.2,22.2h-1.1V2.9h1.2L13.2,22.2 M19.6,20.2h-2.1v-3.8h2.1V20.2 M17.2,20.2h-3.7v-3.8h3.7V20.2 M19.6,16.1h-2.1v-3.8h2.1
		   V16.1 M17.2,16.1h-3.7v-3.8h3.7V16.1 M19.6,11.9h-2.1V8.2h2.1V11.9 M17.2,11.9h-3.7V8.2h3.7V11.9 M19.6,7.8h-2.1V4h2.1V7.8
			M17.2,7.8h-3.7V4h3.7V7.8 M19.5,3.8h-6.1V2.9h6.1V3.8 M17.6,4.2v3.5h1.7V4.2H17.6 M17.6,8.3v3.5h1.7V8.3H17.6 M17.6,12.5
		   v3.5h1.7v-3.5H17.6 M17.6,16.6v3.5h1.7v-3.5H17.6 M20.3,22.2L20.3,22.2l1.1,0V2.9h-9.4v19.3L20.3,22.2 M22.7,22.9H1.3v-0.8
		   h9.4v-20l12,0V22.9"></path>

</svg>
